!!!SOCIAL_FUNCTION: songs connected with ceremonies
!!!SOCIAL_FUNCTION2: Buffalo song
!!!PDT:	1929
!!!LING_GROUP: Caddoan
!!!LANG: Non-Tone
!!!REG: Oklahoma
!!!COM: Anon.
!!!OTL: My Dear Father the Buffalo
!!!ODT: <1920//
!!!MPN: Tutukrawitsu [He overtook the enemy, Wicita Blain]
!!!MLC: Pawnee, Oklahoma, United States of America
!! Song was recorded either 1919 or 1920.
!!!AGN: monody
!!!AMT: irregular
!!!RWG: Transcribed pitches, durations, and meters are only approximate.
!! Drum Tempo:  MM132; changing in fourth measure to MM76
!! Drum-rhythm: (8 8 8 8 8 8)
**kern	**silbe	**words	**words
*ICvox	*LPawnee	*LPawnee	*LEnglish
*Imale	*	*	*
*clefF4	*	*	*
*k[b-e-a-d-g-]	*	*	*
*M3/4	*M3/4	*M3/4	*M3/4
*MM76	*MM76	*MM76	*MM76
*[A,B,B]	*[A,B,B]	*[A,B,B]	*[A,B,B]
*>A	*>A	*>A	*>A
=1-	=1-	=1-	=1-
8f	Ha	Ha	Listen
8f	o	.	.
8f	ti	ti	it
8f	wa-	waka	said
(16e-	-ka	.	.
8d-)	|	.	.
16e-	e-	eru	dear
*M2/4	*M2/4	*M2/4	*M2/4
=2	=2	=2	=2
8.e-	-ru	.	.
16d-	ti	ti	my
8.d-	at-	atsi	father
16c~	-si	.	.
=3	=3	=3	=3
8.d-	e	.	.
16d-	e	.	.
4d-	e	.	.
*M3/4	*M3/4	*M3/4	*M3/4
=4	=4	=4	=4
8d-	ra	ra	have
8d-	i	i	him
8d-	ta	ta	do
8f	wi-	wia	tell about
(16e-	-a	.	.
8d-)	|	.	.
*>B	*>B	*>B	*>B
16e-	e-	eru	dear
*M2/4	*M2/4	*M2/4	*M2/4
=5	=5	=5	=5
8.e-	-ru	.	.
16d-	ti	ti	my
8.d-	at-	atsi	father
16c~	-si	.	.
=6	=6	=6	=6
8.d-	e	.	.
16d-	e	.	.
8.d-;	e	.	.
16f	wi-	witi	is
*M3/4	*M3/4	*M3/4	*M3/4
=7	=7	=7	=7
8.e-	-ti	.	.
16e-	i	.	.
(8.d-	ru	ru	doing
16B-)	|	.	.
32A-	ri	ri	.
16.A-	wi-	wihaku	heavy
16A-	-ha-	.	.
16A-	-ku	.	.
=8	=8	=8	=8
4E-	sa-	sata	going on
8E-	-ta	.	.
8D-	ti	ti	my
8D-	at-	atsi	father
8D-	-si	.	.
*M2/4	*M2/4	*M2/4	*M2/4
=9	=9	=9	=9
8E-	e	.	.
(16E-	e	.	.
16D-)	|	.	.
4E-	e	.	.
=10	=10	=10	=10
12G-	wi-	witi	is
12G-	-ti	.	.
12G-	ru	ru	doing
4E-	ri	ri	.
=11	=11	=11	=11
16D-	wi-	wihaku	heavy
16D-	-i-	.	.
16D-	-ha-	.	.
16D-	-ku	.	.
8D-	sa-	sata	going on
16E-	-ta	.	.
16D-	e	.	.
*M3/4	*M3/4	*M3/4	*M3/4
=12	=12	=12	=12
[2D-	a	.	.
8.D-]	|	.	.
==:|!	==:|!	==:|!	==:|!
*-	*-	*-	*-
!!!HAO: [no description]
!!!HTX: Listen, he said,
!!!HTX: My dear father (the buffalo),
!!!HTX: This is what I was told about it,
!!!HTX: He is heavy, he goes on (if he falls he can not rise),
!!!HTX: My father (the buffalo).
!!!CNT: Pawnee
!!!TXO: Pawnee
!!!OCY: United States
!!!OCL: Frances Densmore
!!!YOR: Frances Densmore, "Pawnee Music"
!!!YOR: Bulletin 93, page 28, No. 4
!!!PPR: Smithsonian Institution, Bureau of American Ethnology
!!!PPR: Government Printing Office
!!!PDT: 1926
!!!PPP: Washington, DC, United States of America
!!!YEC: Electronic Copyright 2000 David Huron
!!!YER: September 2000
!!!YEN: United States of America
!!!ENC: David Huron
!!!RDT: August 31, 2000
!!!EEV: Release 1.0
!!!AIN: tom, vox
